polaris-icons/icons/Automation.svg

<svg width="20" height="20" viewBox="0 0 20 20" fill="none" xmlns="http://www.w3.org/2000/svg">
<path d="M9.37662 2.5C8.45098 2.5 7.7006 3.25038 7.7006 4.17601V4.86371C7.7006 4.92017 7.65837 5.03405 7.5034 5.11502C7.34955 5.1954 7.20009 5.28295 7.05548 5.37723C6.90777 5.47352 6.78653 5.45337 6.73714 5.42486L6.13733 5.07856C5.33571 4.61574 4.31067 4.8904 3.84786 5.69202L3.22458 6.77157C2.76176 7.57319 3.03642 8.59823 3.83804 9.06105L4.48553 9.43487C4.53418 9.46296 4.61041 9.55468 4.60491 9.7258C4.60303 9.78431 4.60209 9.84302 4.60209 9.90193C4.60209 9.99837 4.60462 10.0943 4.60964 10.1896C4.61889 10.3654 4.54087 10.4604 4.4914 10.4889L3.83805 10.8661C3.03642 11.329 2.76177 12.354 3.22459 13.1556L3.84786 14.2352C4.31068 15.0368 5.33572 15.3114 6.13734 14.8486L6.83779 14.4442C6.88631 14.4162 7.00401 14.3959 7.14992 14.4868C7.2649 14.5584 7.3828 14.6258 7.5034 14.6888C7.65837 14.7698 7.7006 14.8837 7.7006 14.9401V15.7512C7.7006 16.6768 8.45098 17.4272 9.37662 17.4272H10.6232C11.5488 17.4272 12.2992 16.6768 12.2992 15.7512V14.9402C12.2992 14.526 11.9634 14.1902 11.5492 14.1902C11.135 14.1902 10.7992 14.526 10.7992 14.9402V15.7512C10.7992 15.8484 10.7204 15.9272 10.6232 15.9272H9.37662C9.27941 15.9272 9.2006 15.8484 9.2006 15.7512V14.9401C9.2006 14.2117 8.73872 13.6419 8.198 13.3593C8.111 13.3139 8.0259 13.2652 7.94286 13.2135C7.42926 12.8937 6.71212 12.7847 6.08779 13.1452L5.38734 13.5496C5.30315 13.5982 5.19551 13.5693 5.1469 13.4852L4.52362 12.4056C4.47502 12.3214 4.50386 12.2138 4.58805 12.1652L5.2414 11.788C5.87819 11.4203 6.13997 10.7263 6.10757 10.1108C6.10393 10.0417 6.10209 9.97207 6.10209 9.90193C6.10209 9.85908 6.10277 9.81643 6.10414 9.77398C6.12356 9.16971 5.85874 8.49564 5.23553 8.13583L4.58804 7.76201C4.50386 7.7134 4.47501 7.60576 4.52362 7.52157L5.14689 6.44202C5.1955 6.35784 5.30315 6.32899 5.38733 6.3776L5.98714 6.7239C6.62487 7.09209 7.3577 6.97079 7.87464 6.6338C7.97912 6.56569 8.08701 6.50249 8.198 6.4445C8.73872 6.162 9.2006 5.59215 9.2006 4.86371V4.17601C9.2006 4.0788 9.27941 4 9.37662 4H10.6232C10.7204 4 10.7992 4.0788 10.7992 4.17601V4.86364C10.7992 5.5921 11.2611 6.16196 11.8018 6.44446C11.9128 6.50245 12.0207 6.56566 12.1252 6.63377C12.6422 6.97075 13.375 7.09204 14.0127 6.72385L14.6124 6.3776C14.6966 6.32899 14.8043 6.35784 14.8529 6.44202L15.4761 7.52157C15.5247 7.60576 15.4959 7.7134 15.4117 7.76201L14.7644 8.13575C14.1412 8.49556 13.8763 9.16964 13.8958 9.77392C13.8971 9.8164 13.8978 9.85907 13.8978 9.90193C13.8978 9.98383 13.8956 10.1495 13.8923 10.2106C13.8706 10.6242 14.1882 10.9772 14.6019 10.999C15.0155 11.0207 15.3685 10.7031 15.3903 10.2894C15.3957 10.186 15.3978 9.98666 15.3978 9.90193C15.3978 9.84299 15.3969 9.78425 15.395 9.72572C15.3895 9.5546 15.4657 9.46288 15.5144 9.43479L16.1617 9.06105C16.9633 8.59823 17.238 7.57319 16.7752 6.77157L16.1519 5.69202C15.6891 4.8904 14.6641 4.61574 13.8624 5.07856L13.2627 5.42481C13.2133 5.45332 13.0921 5.47347 12.9444 5.37718C12.7997 5.2829 12.6503 5.19534 12.4964 5.11496C12.3414 5.03399 12.2992 4.92011 12.2992 4.86364V4.17601C12.2992 3.25038 11.5488 2.5 10.6232 2.5H9.37662Z" fill="#4A4A4A"/>
<path fill-rule="evenodd" clip-rule="evenodd" d="M10 13C11.6569 13 13 11.6569 13 10C13 8.34315 11.6569 7 10 7C8.34315 7 7 8.34315 7 10C7 11.6569 8.34315 13 10 13ZM10 11.5C10.8284 11.5 11.5 10.8284 11.5 10C11.5 9.17157 10.8284 8.5 10 8.5C9.17158 8.5 8.5 9.17157 8.5 10C8.5 10.8284 9.17158 11.5 10 11.5Z" fill="#4A4A4A"/>
<path d="M14.0346 11.8389C13.8817 11.733 13.6827 11.7208 13.5179 11.8071C13.3532 11.8934 13.25 12.064 13.25 12.25V16.75C13.25 16.936 13.3532 17.1066 13.5179 17.1929C13.6827 17.2792 13.8817 17.267 14.0346 17.1611L17.2846 14.9111C17.4195 14.8177 17.5 14.6641 17.5 14.5C17.5 14.3359 17.4195 14.1823 17.2846 14.0889L14.0346 11.8389Z" fill="#4A4A4A"/>
</svg>

<svg viewBox="0 0 20 20" xmlns="http://www.w3.org/2000/svg"><path d="M9.377 2.5c-.926 0-1.676.75-1.676 1.676v.688c0 .056-.043.17-.198.251-.153.08-.303.168-.448.262-.147.097-.268.076-.318.048l-.6-.346a1.676 1.676 0 0 0-2.29.613l-.622 1.08a1.676 1.676 0 0 0 .613 2.289l.648.374c.048.028.124.12.119.29a5.484 5.484 0 0 0 .005.465c.009.175-.07.27-.119.299l-.653.377a1.676 1.676 0 0 0-.613 2.29l.623 1.08a1.676 1.676 0 0 0 2.29.613l.7-.405c.048-.028.166-.048.312.043.115.071.233.139.353.202.155.08.198.195.198.251v.811c0 .926.75 1.676 1.676 1.676h.873a.75.75 0 0 0 0-1.5h-.873a.176.176 0 0 1-.176-.176v-.81c0-.73-.462-1.3-1.003-1.582a3.873 3.873 0 0 1-.255-.146c-.514-.32-1.23-.428-1.855-.068l-.7.405a.176.176 0 0 1-.241-.065l-.623-1.08a.176.176 0 0 1 .064-.24l.653-.377c.637-.368.899-1.062.867-1.677a3.97 3.97 0 0 1-.004-.337c.02-.604-.245-1.278-.868-1.638l-.648-.374a.176.176 0 0 1-.064-.24l.623-1.08a.176.176 0 0 1 .24-.064l.6.346c.638.368 1.37.247 1.888-.09a3.85 3.85 0 0 1 .323-.19c.54-.282 1.003-.852 1.003-1.58v-.688c0-.097.078-.176.176-.176h1.246c.097 0 .176.079.176.176v.688c0 .728.462 1.298 1.003 1.58.11.058.219.122.323.19.517.337 1.25.458 1.888.09l.6-.346a.176.176 0 0 1 .24.064l.623 1.08a.176.176 0 0 1-.064.24l-.648.374c-.623.36-.888 1.034-.868 1.638v.073l.001.155v.248a.75.75 0 0 0 1.5 0c0-.042 0-.458-.002-.524-.005-.171.07-.263.12-.291l.647-.374a1.676 1.676 0 0 0 .613-2.29l-.623-1.079a1.676 1.676 0 0 0-2.29-.613l-.6.346c-.049.028-.17.048-.318-.048a5.4 5.4 0 0 0-.448-.262c-.155-.081-.197-.195-.197-.251v-.688c0-.926-.75-1.676-1.676-1.676h-1.246Z" fill="#5C5F62"/><path fill-rule="evenodd" d="M12.5 10a2.5 2.5 0 1 1-5 0 2.5 2.5 0 0 1 5 0Zm-1.5 0a1 1 0 1 1-2 0 1 1 0 0 1 2 0Z" fill="#5C5F62"/><path d="M12.874 12.101a.75.75 0 0 1 .748-.002l3.5 2a.75.75 0 0 1 0 1.302l-3.5 2a.75.75 0 0 1-1.122-.651v-4a.75.75 0 0 1 .374-.649Z" fill="#5C5F62"/></svg>
